images/car.svg

<svg width="51" height="44" viewBox="0 0 51 44" fill="none" xmlns="http://www.w3.org/2000/svg">
<path d="M37.3988 36.5498V14.45H3.39893V36.5498C3.39893 37.4888 4.15999 38.2498 5.09892 38.2498H35.6988C36.6377 38.2498 37.3988 37.4888 37.3988 36.5498Z" fill="#289BC3"/>
<path d="M13.6015 33.1498H10.2015C7.38486 33.1498 5.10156 35.4331 5.10156 38.2498C5.10156 41.0664 7.38486 43.3497 10.2015 43.3497H13.6015C16.4182 43.3497 18.7015 41.0664 18.7015 38.2498C18.7015 35.4331 16.4182 33.1498 13.6015 33.1498Z" fill="#32283C"/>
<path d="M44.1987 33.1498H40.7987C37.982 33.1498 35.6987 35.4331 35.6987 38.2498C35.6987 41.0665 37.982 43.3498 40.7987 43.3498H44.1987C47.0154 43.3498 49.2987 41.0665 49.2987 38.2498C49.2987 35.4331 47.0154 33.1498 44.1987 33.1498Z" fill="#32283C"/>
<path d="M40.7987 43.3498C43.6153 43.3498 45.8987 41.0665 45.8987 38.2498C45.8987 35.4332 43.6153 33.1498 40.7987 33.1498C37.9821 33.1498 35.6987 35.4332 35.6987 38.2498C35.6987 41.0665 37.9821 43.3498 40.7987 43.3498Z" fill="#555A6E"/>
<path d="M40.7976 39.9498C41.7365 39.9498 42.4976 39.1887 42.4976 38.2498C42.4976 37.3109 41.7365 36.5498 40.7976 36.5498C39.8588 36.5498 39.0977 37.3109 39.0977 38.2498C39.0977 39.1887 39.8588 39.9498 40.7976 39.9498Z" fill="#E6E6EB"/>
<path d="M30.601 33.1498H27.201C24.3844 33.1498 22.1011 35.4331 22.1011 38.2498C22.1011 41.0665 24.3844 43.3498 27.201 43.3498H30.601C33.4177 43.3498 35.701 41.0665 35.701 38.2498C35.701 35.4331 33.4177 33.1498 30.601 33.1498Z" fill="#32283C"/>
<path d="M47.6022 16.15H22.1023C21.1634 16.15 20.4023 16.911 20.4023 17.85V19.5499H47.6022C48.5411 19.5499 49.3022 18.7889 49.3022 17.85C49.3022 16.911 48.5411 16.15 47.6022 16.15Z" fill="#A5C3DC"/>
<path d="M30.6023 16.15H22.1023C21.1634 16.15 20.4023 16.911 20.4023 17.85V19.5499H30.6023C31.5412 19.5499 32.3023 18.7889 32.3023 17.85C32.3023 16.911 31.5412 16.15 30.6023 16.15Z" fill="#D7E6F0"/>
<path d="M20.4023 19.5499H47.6022V28.0498H20.4023V19.5499Z" fill="#463C4B"/>
<path d="M20.4023 19.5499H30.6023V28.0498H20.4023V19.5499Z" fill="#555A6E"/>
<path d="M49.3022 38.2498H22.1023C21.1634 38.2498 20.4023 37.4887 20.4023 36.5498V28.0498H47.6022C49.4799 28.0498 51.0022 29.572 51.0022 31.4498V36.5498C51.0022 37.4887 50.2411 38.2498 49.3022 38.2498Z" fill="#A5C3DC"/>
<path d="M32.3023 38.2498H22.1023C21.1634 38.2498 20.4023 37.4887 20.4023 36.5498V28.0498H30.6023C32.48 28.0498 34.0023 29.572 34.0023 31.4498V36.5498C34.0023 37.4887 33.2412 38.2498 32.3023 38.2498Z" fill="#D7E6F0"/>
<path d="M38.1072 31.4498H46.8905C48.2206 31.4498 49.2988 32.528 49.2988 33.8582C49.2988 35.1882 48.2205 36.2665 46.8904 36.2665H38.1071C36.7771 36.2665 35.6987 35.1883 35.6987 33.8582C35.6988 32.528 36.7771 31.4498 38.1072 31.4498Z" fill="#555A6E"/>
<path d="M38.1109 35.1332C38.8151 35.1332 39.3859 34.5623 39.3859 33.8582C39.3859 33.154 38.8151 32.5832 38.1109 32.5832C37.4068 32.5832 36.8359 33.154 36.8359 33.8582C36.8359 34.5623 37.4068 35.1332 38.1109 35.1332Z" fill="#00D2D2"/>
<path d="M46.8883 35.1332C47.5924 35.1332 48.1633 34.5623 48.1633 33.8582C48.1633 33.154 47.5924 32.5832 46.8883 32.5832C46.1841 32.5832 45.6133 33.154 45.6133 33.8582C45.6133 34.5623 46.1841 35.1332 46.8883 35.1332Z" fill="#00D2D2"/>
<path d="M16.1497 0H11.0497C10.5803 0 10.1997 0.380586 10.1997 0.849996C10.1997 1.31941 10.5803 1.69999 11.0497 1.69999C14.3305 1.69999 16.9997 4.36919 16.9997 7.64996C16.9997 8.11937 17.3803 8.49996 17.8497 8.49996H22.9496C23.4191 8.49996 23.7996 8.11937 23.7996 7.64996C23.7996 3.43175 20.3679 0 16.1497 0Z" fill="#A5C3DC"/>
<path d="M29.7494 0H24.6495C20.4313 0 16.9995 3.43175 16.9995 7.64996C16.9995 8.11937 17.3801 8.49996 17.8495 8.49996H22.9495C23.4189 8.49996 23.7995 8.11937 23.7995 7.64996C23.7995 4.36919 26.4687 1.69999 29.7494 1.69999C30.2189 1.69999 30.5994 1.31941 30.5994 0.849996C30.5994 0.380586 30.2189 0 29.7494 0Z" fill="#A5C3DC"/>
<path d="M33.1497 0H28.0497C27.5803 0 27.1997 0.380586 27.1997 0.849996C27.1997 1.31941 27.5803 1.69999 28.0497 1.69999C29.4558 1.69999 30.5997 2.84387 30.5997 4.24998C30.5997 5.65608 29.4558 6.79996 28.0497 6.79996C27.5803 6.79996 27.1997 7.18055 27.1997 7.64996C27.1997 8.11937 27.5803 8.49996 28.0497 8.49996H33.1497C35.4931 8.49996 37.3997 6.59342 37.3997 4.24998C37.3997 1.90654 35.4931 0 33.1497 0Z" fill="#A5C3DC"/>
<path d="M12.7489 6.79996C11.3428 6.79996 10.1989 5.65608 10.1989 4.24998C10.1989 2.84387 11.3428 1.69999 12.7489 1.69999C13.2183 1.69999 13.5989 1.31941 13.5989 0.849996C13.5989 0.380586 13.2183 0 12.7489 0H7.6489C5.30547 0 3.39893 1.90654 3.39893 4.24998C3.39893 6.59342 5.30547 8.49996 7.6489 8.49996H12.7489C13.2183 8.49996 13.5989 8.11937 13.5989 7.64996C13.5989 7.18055 13.2183 6.79996 12.7489 6.79996Z" fill="#A5C3DC"/>
<path d="M39.0998 8.49994H1.69999C0.761065 8.49994 0 9.261 0 10.1999V12.7499C0 13.6888 0.761065 14.4499 1.69999 14.4499H39.0998C40.0387 14.4499 40.7998 13.6888 40.7998 12.7499V10.1999C40.7998 9.261 40.0387 8.49994 39.0998 8.49994Z" fill="#289BC3"/>
<path d="M18.6988 38.2498H5.09892C4.15999 38.2498 3.39893 37.4887 3.39893 36.5498V19.5499H20.3988V36.5498C20.3988 37.4887 19.6378 38.2498 18.6988 38.2498Z" fill="#00D2D2"/>
<path d="M20.3999 8.49994H1.69999C0.761065 8.49994 0 9.261 0 10.1999V12.7499C0 13.6888 0.761065 14.4499 1.69999 14.4499H20.3999C21.3388 14.4499 22.0999 13.6888 22.0999 12.7499V10.1999C22.0999 9.261 21.3388 8.49994 20.3999 8.49994Z" fill="#00D2D2"/>
<path d="M11.8978 12.7499C11.8978 13.6888 12.6589 14.4499 13.5978 14.4499H8.49784C7.55892 14.4499 6.79785 13.6888 6.79785 12.7499V10.1999C6.79785 9.261 7.55892 8.49994 8.49784 8.49994H13.5978C12.6589 8.49994 11.8978 9.261 11.8978 10.1999V12.7499Z" fill="#D7E6F0"/>
<path d="M28.9031 12.75C28.9031 13.6889 28.1421 14.45 27.2031 14.45H32.3031C33.242 14.45 34.0031 13.6889 34.0031 12.75V10.2C34.0031 9.26106 33.242 8.5 32.3031 8.5H27.2031C28.1421 8.5 28.9031 9.26106 28.9031 10.2V12.75Z" fill="#A5C3DC"/>
<path d="M28.0529 8.49996H17.0029V7.64996C17.0029 3.43175 20.4347 0 24.6529 0H28.0529C30.3963 0 32.3028 1.90654 32.3028 4.24998C32.3028 6.59342 30.3963 8.49996 28.0529 8.49996ZM18.7635 6.79996H28.0529C29.459 6.79996 30.6029 5.65608 30.6029 4.24998C30.6029 2.84387 29.459 1.69999 28.0529 1.69999H24.6529C21.6606 1.69999 19.1771 3.92029 18.7635 6.79996Z" fill="#D7E6F0"/>
<path d="M18.6988 8.49996H7.6489C5.30547 8.49996 3.39893 6.59342 3.39893 4.24998C3.39893 1.90654 5.30547 0 7.6489 0H11.0489C15.2671 0 18.6988 3.43175 18.6988 7.64996V8.49996ZM7.6489 1.69999C6.2428 1.69999 5.09892 2.84387 5.09892 4.24998C5.09892 5.65608 6.2428 6.79996 7.6489 6.79996H16.9383C16.5246 3.92029 14.0411 1.69999 11.0489 1.69999H7.6489Z" fill="#D7E6F0"/>
<path d="M27.201 43.3498C30.0177 43.3498 32.301 41.0665 32.301 38.2498C32.301 35.4332 30.0177 33.1498 27.201 33.1498C24.3844 33.1498 22.1011 35.4332 22.1011 38.2498C22.1011 41.0665 24.3844 43.3498 27.201 43.3498Z" fill="#555A6E"/>
<path d="M27.2 39.9498C28.1389 39.9498 28.9 39.1887 28.9 38.2498C28.9 37.3109 28.1389 36.5498 27.2 36.5498C26.2611 36.5498 25.5 37.3109 25.5 38.2498C25.5 39.1887 26.2611 39.9498 27.2 39.9498Z" fill="#E6E6EB"/>
<path d="M10.2015 43.3497C13.0182 43.3497 15.3015 41.0664 15.3015 38.2498C15.3015 35.4331 13.0182 33.1498 10.2015 33.1498C7.3849 33.1498 5.10156 35.4331 5.10156 38.2498C5.10156 41.0664 7.3849 43.3497 10.2015 43.3497Z" fill="#555A6E"/>
<path d="M10.1966 39.9498C11.1355 39.9498 11.8966 39.1887 11.8966 38.2498C11.8966 37.3109 11.1355 36.5498 10.1966 36.5498C9.25769 36.5498 8.49658 37.3109 8.49658 38.2498C8.49658 39.1887 9.25769 39.9498 10.1966 39.9498Z" fill="#E6E6EB"/>
</svg>

<svg xmlns="http://www.w3.org/2000/svg" width="51" height="44" fill="none"><path fill="#289BC3" d="M37.399 36.55v-22.1h-34v22.1a1.7 1.7 0 0 0 1.7 1.7h30.6a1.7 1.7 0 0 0 1.7-1.7Z"/><path fill="#32283C" d="M13.601 33.15h-3.4a5.1 5.1 0 1 0 0 10.2h3.4a5.1 5.1 0 1 0 0-10.2ZM44.199 33.15h-3.4a5.1 5.1 0 1 0 0 10.2h3.4a5.1 5.1 0 1 0 0-10.2Z"/><path fill="#555A6E" d="M40.799 43.35a5.1 5.1 0 1 0 0-10.2 5.1 5.1 0 0 0 0 10.2Z"/><path fill="#E6E6EB" d="M40.798 39.95a1.7 1.7 0 1 0 0-3.4 1.7 1.7 0 0 0 0 3.4Z"/><path fill="#32283C" d="M30.601 33.15h-3.4a5.1 5.1 0 0 0 0 10.2h3.4a5.1 5.1 0 1 0 0-10.2Z"/><path fill="#A5C3DC" d="M47.602 16.15h-25.5a1.7 1.7 0 0 0-1.7 1.7v1.7h27.2a1.7 1.7 0 1 0 0-3.4Z"/><path fill="#D7E6F0" d="M30.602 16.15h-8.5a1.7 1.7 0 0 0-1.7 1.7v1.7h10.2a1.7 1.7 0 1 0 0-3.4Z"/><path fill="#463C4B" d="M20.402 19.55h27.2v8.5h-27.2v-8.5Z"/><path fill="#555A6E" d="M20.402 19.55h10.2v8.5h-10.2v-8.5Z"/><path fill="#A5C3DC" d="M49.302 38.25h-27.2a1.7 1.7 0 0 1-1.7-1.7v-8.5h27.2a3.4 3.4 0 0 1 3.4 3.4v5.1a1.7 1.7 0 0 1-1.7 1.7Z"/><path fill="#D7E6F0" d="M32.302 38.25h-10.2a1.7 1.7 0 0 1-1.7-1.7v-8.5h10.2a3.4 3.4 0 0 1 3.4 3.4v5.1a1.7 1.7 0 0 1-1.7 1.7Z"/><path fill="#555A6E" d="M38.107 31.45h8.784a2.408 2.408 0 1 1 0 4.817h-8.784a2.408 2.408 0 1 1 0-4.817Z"/><path fill="#00D2D2" d="M38.11 35.133a1.275 1.275 0 1 0 0-2.55 1.275 1.275 0 0 0 0 2.55ZM46.888 35.133a1.275 1.275 0 1 0 0-2.55 1.275 1.275 0 0 0 0 2.55Z"/><path fill="#A5C3DC" d="M16.15 0h-5.1a.85.85 0 0 0 0 1.7C14.33 1.7 17 4.37 17 7.65c0 .47.38.85.85.85h5.1c.47 0 .85-.38.85-.85C23.8 3.432 20.368 0 16.15 0Z"/><path fill="#A5C3DC" d="M29.75 0h-5.1C20.43 0 17 3.432 17 7.65c0 .47.38.85.85.85h5.1c.469 0 .85-.38.85-.85 0-3.28 2.669-5.95 5.95-5.95a.85.85 0 1 0 0-1.7Z"/><path fill="#A5C3DC" d="M33.15 0h-5.1a.85.85 0 0 0 0 1.7 2.553 2.553 0 0 1 2.55 2.55 2.553 2.553 0 0 1-2.55 2.55.85.85 0 0 0 0 1.7h5.1a4.255 4.255 0 0 0 4.25-4.25A4.255 4.255 0 0 0 33.15 0ZM12.749 6.8a2.553 2.553 0 0 1-2.55-2.55 2.553 2.553 0 0 1 2.55-2.55.85.85 0 0 0 0-1.7h-5.1a4.255 4.255 0 0 0-4.25 4.25 4.255 4.255 0 0 0 4.25 4.25h5.1a.85.85 0 0 0 0-1.7Z"/><path fill="#289BC3" d="M39.1 8.5H1.7A1.7 1.7 0 0 0 0 10.2v2.55a1.7 1.7 0 0 0 1.7 1.7h37.4a1.7 1.7 0 0 0 1.7-1.7V10.2a1.7 1.7 0 0 0-1.7-1.7Z"/><path fill="#00D2D2" d="M18.699 38.25h-13.6a1.7 1.7 0 0 1-1.7-1.7v-17h17v17a1.7 1.7 0 0 1-1.7 1.7ZM20.4 8.5H1.7A1.7 1.7 0 0 0 0 10.2v2.55a1.7 1.7 0 0 0 1.7 1.7h18.7a1.7 1.7 0 0 0 1.7-1.7V10.2a1.7 1.7 0 0 0-1.7-1.7Z"/><path fill="#D7E6F0" d="M11.898 12.75a1.7 1.7 0 0 0 1.7 1.7h-5.1a1.7 1.7 0 0 1-1.7-1.7V10.2a1.7 1.7 0 0 1 1.7-1.7h5.1a1.7 1.7 0 0 0-1.7 1.7v2.55Z"/><path fill="#A5C3DC" d="M28.903 12.75a1.7 1.7 0 0 1-1.7 1.7h5.1a1.7 1.7 0 0 0 1.7-1.7V10.2a1.7 1.7 0 0 0-1.7-1.7h-5.1a1.7 1.7 0 0 1 1.7 1.7v2.55Z"/><path fill="#D7E6F0" d="M28.053 8.5h-11.05v-.85c0-4.218 3.432-7.65 7.65-7.65h3.4a4.255 4.255 0 0 1 4.25 4.25 4.255 4.255 0 0 1-4.25 4.25Zm-9.29-1.7h9.29a2.553 2.553 0 0 0 2.55-2.55 2.553 2.553 0 0 0-2.55-2.55h-3.4a5.96 5.96 0 0 0-5.89 5.1Z"/><path fill="#D7E6F0" d="M18.699 8.5H7.649a4.255 4.255 0 0 1-4.25-4.25A4.255 4.255 0 0 1 7.649 0h3.4c4.218 0 7.65 3.432 7.65 7.65v.85ZM7.649 1.7a2.553 2.553 0 0 0-2.55 2.55 2.553 2.553 0 0 0 2.55 2.55h9.29a5.96 5.96 0 0 0-5.89-5.1h-3.4Z"/><path fill="#555A6E" d="M27.201 43.35a5.1 5.1 0 1 0 0-10.2 5.1 5.1 0 0 0 0 10.2Z"/><path fill="#E6E6EB" d="M27.2 39.95a1.7 1.7 0 1 0 0-3.4 1.7 1.7 0 0 0 0 3.4Z"/><path fill="#555A6E" d="M10.201 43.35a5.1 5.1 0 1 0 0-10.2 5.1 5.1 0 0 0 0 10.2Z"/><path fill="#E6E6EB" d="M10.197 39.95a1.7 1.7 0 1 0 0-3.4 1.7 1.7 0 0 0 0 3.4Z"/></svg>
